images/shape1.svg

<svg width="59" height="37" viewBox="0 0 59 37" fill="none" xmlns="http://www.w3.org/2000/svg">
<path fill-rule="evenodd" clip-rule="evenodd" d="M13.5673 1.97098C16.7371 0.771132 19.9868 0.331588 23.3249 0.124411C26.7858 -0.0903848 44.2713 -0.107271 47.557 0.736989C51.5469 1.76217 56.8324 1.97353 58.557 5.55241C60.3083 9.18683 56.3504 13.4106 55.6341 17.4989C55.0281 20.9572 56.1179 24.4831 54.6676 27.7497C53.1117 31.2542 50.8259 34.9931 47.1943 36.5084C43.5812 38.0159 25.6976 35.5774 21.8539 35.555C18.1562 35.5334 14.4662 37.2142 10.9245 36.3793C6.86166 35.4214 1.95888 34.1946 0.384408 30.4936C-1.21805 26.7268 2.67018 22.5225 3.2609 18.3649C3.77958 14.7143 1.61854 10.7918 3.64066 7.57527C5.66276 4.35883 9.95896 3.3368 13.5673 1.97098Z" fill="#FFAD0E"/>
</svg>

<svg width="59" height="37" fill="none" xmlns="http://www.w3.org/2000/svg"><path fill-rule="evenodd" clip-rule="evenodd" d="M13.567 1.971c3.17-1.2 6.42-1.64 9.758-1.847 3.46-.214 20.946-.231 24.232.613 3.99 1.025 9.275 1.237 11 4.815 1.751 3.635-2.207 7.859-2.923 11.947-.606 3.458.484 6.984-.966 10.25-1.556 3.505-3.842 7.244-7.474 8.76-3.613 1.507-21.496-.932-25.34-.954-3.698-.022-7.388 1.66-10.93.824-4.062-.958-8.965-2.184-10.54-5.885-1.602-3.767 2.286-7.971 2.877-12.13.519-3.65-1.642-7.572.38-10.789 2.022-3.216 6.318-4.238 9.926-5.604z" fill="#FFAD0E"/></svg>
